libs/ui/packages/crypto-icons/src/svg/GMR.svg

<svg width="24" height="24" viewBox="0 0 24 24" fill="none">
<path fill-rule="evenodd" clip-rule="evenodd" d="M17.1653 18.4032C17.5272 17.9554 17.8461 17.4745 18.1178 16.9669C17.8401 17.4782 17.5165 17.9631 17.1511 18.4159C17.1561 18.4119 17.1608 18.4077 17.1653 18.4032ZM5.26432 15.4706C4.94645 14.3792 4.8879 13.2287 5.09332 12.1106L5.08957 12.1031C4.8127 13.6043 5.01226 15.1544 5.66032 16.5364C5.97607 17.2039 6.36907 17.8309 6.83182 18.4054C6.83835 18.4119 6.84537 18.4179 6.85282 18.4234C6.38316 17.8439 5.98434 17.2104 5.66482 16.5364C5.50454 16.1918 5.37065 15.8355 5.26432 15.4706ZM18.7366 15.4706C18.7361 15.4706 18.7356 15.4706 18.7351 15.4706H18.7366ZM7.07407 14.5977L7.17607 14.5474L7.26607 14.5039C7.20178 14.5345 7.13778 14.5658 7.07407 14.5977Z" fill="#372D2C"/>
<path d="M7.47534 14.5654L7.55109 14.5092H7.52559L7.17609 14.8317C7.25845 14.7248 7.36023 14.6345 7.47609 14.5654H7.47534Z" fill="#372D2C"/>
<path d="M20.214 10.7801C20.1769 10.7225 20.1192 10.6812 20.0528 10.6646C19.7936 10.601 19.5336 10.541 19.2728 10.4846L19.3433 10.1366L19.3883 9.91764L19.4093 9.80664L19.4295 9.68664C19.458 9.50865 19.438 9.32628 19.3718 9.15864C19.3017 8.97992 19.1867 8.82234 19.0378 8.70118C18.8889 8.58003 18.7112 8.4994 18.522 8.46714C18.4597 8.08908 18.3735 7.71533 18.264 7.34814L18.2513 7.30314L16.3868 5.03814L16.317 5.01789C16.2413 4.99764 14.5613 4.50114 12.2745 4.50039L12.3 4.04889C12.5102 3.97972 12.6888 3.83762 12.8033 3.64829C12.9179 3.45895 12.961 3.23487 12.9248 3.01655C12.8885 2.79823 12.7754 2.60008 12.6058 2.45791C12.4362 2.31574 12.2213 2.23894 12 2.24139C11.7791 2.2395 11.5648 2.31655 11.3957 2.45866C11.2266 2.60077 11.1138 2.7986 11.0776 3.01651C11.0414 3.23442 11.0842 3.45809 11.1984 3.64723C11.3125 3.83637 11.4904 3.97854 11.7 4.04814L11.7263 4.50189C9.42976 4.50414 7.74076 4.99764 7.66876 5.02164L7.59901 5.04189L5.73451 7.30689L5.72251 7.35189C5.61301 7.71939 5.52676 8.09214 5.46451 8.46939H5.45851L5.32651 8.50239C5.07998 8.57752 4.86824 8.73793 4.72918 8.95491C4.59011 9.17188 4.5328 9.43127 4.56751 9.68664L4.58776 9.80589L4.60876 9.91689L4.65376 10.1359L4.72426 10.4854C4.46551 10.5424 4.20676 10.6009 3.94876 10.6639C3.8822 10.6803 3.82449 10.7217 3.78751 10.7794C3.76165 10.8227 3.74917 10.8727 3.75165 10.9231C3.75413 10.9734 3.77145 11.022 3.80142 11.0625C3.8314 11.1031 3.87271 11.1339 3.92014 11.151C3.96758 11.1682 4.01902 11.1709 4.06801 11.1589C4.32001 11.0974 4.57201 11.0389 4.82476 10.9841L4.84351 11.0801C4.2545 12.9483 4.38997 14.9698 5.22301 16.7426C6.35401 19.1561 8.95651 21.7586 12.0015 21.7586C15.0458 21.7586 17.649 19.1561 18.783 16.7389C19.6133 14.9644 19.7459 12.9426 19.1543 11.0749L19.1723 10.9864C19.4258 11.0419 19.6793 11.1004 19.932 11.1619C19.981 11.1739 20.0324 11.1712 20.0799 11.154C20.1273 11.1369 20.1686 11.1061 20.1986 11.0655C20.2286 11.025 20.2459 10.9764 20.2484 10.9261C20.2508 10.8757 20.2384 10.8257 20.2125 10.7824L20.214 10.7801ZM11.3355 3.17364C11.3361 2.9805 11.4125 2.79532 11.5483 2.65798C11.6841 2.52064 11.8684 2.44214 12.0615 2.43939C12.4665 2.43939 12.4665 3.90414 12.0615 3.90789C11.8684 3.90514 11.6841 3.82664 11.5483 3.6893C11.4125 3.55196 11.3361 3.36678 11.3355 3.17364ZM11.8215 4.08114C11.8808 4.09239 11.94 4.09839 12 4.09839H12.0285L12.0855 5.67489C12.1224 5.72395 12.1402 5.78468 12.1358 5.84588C12.1314 5.90708 12.105 5.96462 12.0615 6.00789C12.0377 6.03173 12.0094 6.05063 11.9782 6.06351C11.9471 6.07638 11.9137 6.08296 11.88 6.08289C11.5005 6.08289 11.1953 5.96739 11.1953 5.82789C11.1953 5.69889 11.4518 5.59164 11.7878 5.57364L11.88 5.57139H11.9055L11.8215 4.08114ZM6.11851 7.70889L6.33676 7.63089L6.70801 7.50714L7.19551 7.36314C7.37251 7.30914 7.57051 7.25964 7.77676 7.20564L8.43226 7.05789C8.65951 7.01289 8.89426 6.96264 9.13726 6.92139C9.38101 6.88014 9.62476 6.84714 9.87226 6.80589C10.1198 6.76464 10.3673 6.74439 10.6103 6.71589C10.854 6.68589 11.0933 6.67389 11.328 6.65364C11.4518 6.64239 11.5785 6.63714 11.6993 6.63264H11.712L12.0008 9.20289L12.2933 6.61089H12.6068C12.7928 6.61089 12.966 6.60264 13.1183 6.61089L13.5143 6.62739L13.8608 6.63939L13.5188 6.60639L13.1228 6.56889C12.9698 6.55314 12.8003 6.54864 12.6113 6.53664C12.4093 6.5217 12.207 6.51344 12.0045 6.51189H12.0015C11.7885 6.51189 11.559 6.49914 11.325 6.50739C11.0918 6.51564 10.8465 6.51189 10.599 6.52839L9.84826 6.57789C9.59626 6.59814 9.34501 6.61914 9.09751 6.65214C8.85001 6.68514 8.60626 6.72189 8.37526 6.75114C8.15251 6.77889 7.93276 6.82164 7.72576 6.85839L7.35676 6.82914L8.09101 5.82714L11.7578 5.02764L11.7803 5.42514C11.2853 5.46414 10.914 5.62839 10.914 5.82564C10.914 6.05064 11.4015 6.23364 12.003 6.23364C12.6045 6.23364 13.092 6.05139 13.092 5.82564C13.092 5.62839 12.7208 5.46414 12.2258 5.42514L12.2483 5.02914L15.8993 5.82639L16.6343 6.82839L15.6128 6.91089L15.594 6.90864L15.6053 6.91164H15.5903L17.5455 7.88064C17.5455 7.88064 18.3885 10.5881 17.2268 12.8891C17.0942 13.1492 16.9399 13.3976 16.7655 13.6316C16.7655 13.6316 14.961 14.4649 12.1868 14.6119L12.0015 13.8491C12.2283 13.8567 12.4543 13.8174 12.6653 13.7336L13.2428 13.5439C14.4158 13.1824 15.5903 12.8261 16.7655 12.4759L16.881 12.4429L16.9185 12.3356L16.956 12.2284L16.9845 12.1249L17.0378 11.9224C17.1323 11.5249 17.1998 11.1214 17.2403 10.7141L17.2733 10.3016L17.2808 10.0954V9.88539L17.2853 9.67089L17.265 9.45639L17.232 9.24189C17.2179 9.17218 17.1999 9.10332 17.178 9.03564L17.145 8.92839L17.1075 8.80014L17.0813 8.79639L17.0708 8.76339L17.0333 8.63514L16.8855 8.61489C15.6677 8.47285 14.4438 8.38876 13.218 8.36289L13.0905 8.35914L13.0365 8.46639L12.3645 9.78339L12.0015 9.78939L11.604 9.79689L10.884 8.50689L10.8465 8.43714L10.7715 8.44164C10.1618 8.47539 9.55276 8.52489 8.94451 8.59014C8.33847 8.65443 7.73465 8.73822 7.13401 8.84139H7.14601H7.13851L7.11301 8.92389C7.10631 8.94519 7.1003 8.9667 7.09501 8.98839C7.10701 8.93964 7.12126 8.89164 7.13626 8.84139C7.11255 8.90769 7.08501 8.97255 7.05376 9.03564C7.04026 9.08814 7.02526 9.13989 7.01551 9.19239L7.00801 9.21264L6.96301 9.41514L6.93001 9.61689L6.90901 9.82314C6.90151 9.95964 6.89701 10.0999 6.90151 10.2356L6.91726 10.6481C6.94501 11.0606 6.99976 11.4716 7.08226 11.8774L7.12726 12.0799L7.18576 12.2861L7.20226 12.3356L7.26001 12.3559L9.59476 13.1231C10.2818 13.3466 10.968 13.5769 11.6528 13.8124C11.7113 13.8244 11.7705 13.8326 11.8305 13.8371L11.8718 13.8409H11.8838L11.9048 13.8454L11.991 13.8491H12.0038L11.8133 14.6254C11.1324 14.6453 10.4509 14.6207 9.77326 14.5519C8.10676 14.3284 7.01026 13.9294 6.72526 13.8161C5.80035 11.9181 5.58539 9.75168 6.11926 7.70889H6.11851ZM14.9685 8.85639L12.7628 13.0151L12.615 13.2926L12.5078 13.3294C12.3793 13.3758 12.2445 13.4021 12.108 13.4074C11.8988 13.4284 11.6875 13.403 11.4893 13.3331L11.4143 13.3046L11.5088 13.1284L13.8188 8.77839L13.923 8.58114C14.298 8.59764 14.682 8.62689 15.0735 8.65989L14.9685 8.85639ZM15.6465 8.92389L15.7545 8.71989L16.0718 8.74914L16.3733 8.78214L16.4108 8.78589H16.4348L16.3238 8.99589L14.4938 12.4444L14.3438 12.7271L13.4858 12.9994L13.6335 12.7196L15.6465 8.92389ZM4.88401 9.87639L4.87201 9.76539L4.86376 9.65814C4.85241 9.48869 4.89986 9.3205 4.99809 9.18196C5.09633 9.04342 5.23934 8.943 5.40301 8.89764C5.25874 10.1246 5.36592 11.3682 5.71801 12.5524L5.68426 12.5419C5.56244 12.4988 5.4518 12.4291 5.36044 12.3377C5.26909 12.2463 5.19932 12.1357 5.15626 12.0139C5.12349 11.9106 5.10285 11.8039 5.09476 11.6959L4.90876 10.1014L4.88401 9.87639ZM6.94951 18.4661L6.93826 18.4571L6.94351 18.4646C6.90168 18.4533 6.86313 18.4322 6.83101 18.4031C6.36829 17.8292 5.97506 17.2026 5.65951 16.5364C5.0117 15.1543 4.8124 13.6042 5.08951 12.1031L5.09251 12.1106C5.15674 12.2331 5.24717 12.3398 5.35736 12.4233C5.46754 12.5068 5.59478 12.5649 5.73001 12.5936C5.88976 13.1201 6.09676 13.6309 6.34876 14.1199L6.38626 14.1859L6.45601 14.2189C6.72001 14.3269 6.98926 14.4214 7.26301 14.5031H7.26976L7.25026 14.5091C7.18963 14.5295 7.12984 14.5523 7.07101 14.5774C7.02153 14.5981 6.97252 14.6198 6.92401 14.6426L6.60601 14.7949L6.50326 14.8444L6.49051 14.9479C6.40089 15.7324 6.47912 16.5269 6.72001 17.2789C6.83626 17.6531 6.99976 18.0109 7.20676 18.3439L7.21051 18.3514L7.22326 18.3844C7.24126 18.4676 7.08076 18.5014 6.94951 18.4669V18.4661ZM9.78451 20.1251C9.20385 19.9127 8.6731 19.5832 8.22526 19.1569C7.9699 18.9072 7.75191 18.6221 7.57801 18.3101C7.40527 17.9979 7.27224 17.6654 7.18201 17.3201C7.09351 16.9743 7.0395 16.6206 7.02076 16.2641C6.99839 15.9515 7.00819 15.6373 7.05001 15.3266L7.24351 15.2494C7.44226 15.1841 7.64326 15.1264 7.84576 15.0769L8.15551 15.0146C8.42326 14.9696 8.69251 14.9374 8.96401 14.9194H8.99626L9.00826 14.9209C8.77649 15.5525 8.65965 16.2206 8.66326 16.8934C8.66326 18.2359 9.10576 19.3781 9.80851 20.1394L9.78451 20.1251ZM13.0095 19.2679C12.699 19.4436 12.3478 19.5347 11.991 19.5319C11.6193 19.5337 11.2541 19.4338 10.935 19.2431C10.7835 19.0792 10.6544 18.8958 10.551 18.6979C10.7259 18.9007 10.9416 19.0644 11.184 19.1781C11.4265 19.2918 11.6902 19.3531 11.958 19.3578C12.2258 19.3626 12.4915 19.3107 12.7379 19.2056C12.9842 19.1006 13.2056 18.9447 13.3875 18.7481C13.2848 18.9374 13.1577 19.1124 13.0095 19.2686V19.2679ZM11.991 18.9544C11.7979 18.9553 11.6065 18.9181 11.4278 18.845C11.249 18.7719 11.0865 18.6643 10.9493 18.5284C10.8122 18.3924 10.7032 18.2308 10.6285 18.0527C10.5539 17.8746 10.515 17.6835 10.5143 17.4904V17.4851C10.514 17.1947 10.5997 16.9106 10.7608 16.6688C10.9218 16.4271 11.1508 16.2384 11.419 16.1267C11.6871 16.015 11.9823 15.9852 12.2674 16.0412C12.5524 16.0971 12.8145 16.2363 13.0205 16.441C13.2266 16.6458 13.3673 16.907 13.425 17.1917C13.4827 17.4764 13.4547 17.7718 13.3446 18.0407C13.2346 18.3095 13.0473 18.5397 12.8065 18.7022C12.5658 18.8646 12.2822 18.9522 11.9918 18.9536V18.9544H11.991ZM13.857 17.2001C13.7815 16.7539 13.5485 16.3495 13.2004 16.0603C12.8522 15.7712 12.412 15.6163 11.9594 15.624C11.5069 15.6316 11.0721 15.8011 10.7339 16.1019C10.3957 16.4026 10.1765 16.8146 10.116 17.2631C10.0937 17.0932 10.0799 16.9222 10.0748 16.7509C10.2257 16.3659 10.4897 16.0356 10.832 15.8036C11.1744 15.5716 11.579 15.4487 11.9925 15.4511H12C12.4054 15.4502 12.802 15.5696 13.1394 15.7944C13.4768 16.0191 13.7399 16.339 13.8953 16.7134C13.8902 16.8764 13.8774 17.0391 13.857 17.2009V17.2001ZM14.181 20.1484H14.1885L14.1735 20.1536C14.886 19.3916 15.336 18.2419 15.336 16.8889C15.34 16.216 15.2229 15.5478 14.9903 14.9164H15.0008C16.062 15.0694 16.6148 15.6139 16.6148 15.6139C16.6148 15.6139 16.7273 18.7234 14.1825 20.1484H14.181ZM19.0283 13.4434V13.6039C19.0283 13.6406 19.0253 13.6766 19.0245 13.7126C19.022 13.7947 19.0175 13.8768 19.011 13.9586C19.011 13.9841 19.0065 14.0104 19.0043 14.0359C18.9998 14.0891 18.9953 14.1431 18.9893 14.1956C18.9893 14.2076 18.987 14.2196 18.9855 14.2316C18.9798 14.2832 18.9735 14.3347 18.9668 14.3861V14.3936L18.9458 14.5421V14.5474C18.8269 15.3211 18.5843 16.0707 18.2273 16.7674L18.2018 16.8169C18.1755 16.8671 18.1493 16.9181 18.1215 16.9684C17.8495 17.4758 17.5306 17.9566 17.169 18.4046C17.1386 18.4337 17.1015 18.4548 17.061 18.4661L17.0655 18.4586L17.0543 18.4676C16.9245 18.5051 16.7588 18.4729 16.7768 18.3851L16.7895 18.3521L16.797 18.3446C17.0018 18.0101 17.1645 17.6531 17.2808 17.2796C17.5176 16.5284 17.5947 15.736 17.5073 14.9531L17.4953 14.8504L17.3918 14.8009C17.2845 14.7469 17.1818 14.6936 17.0745 14.6479L16.7483 14.5159L16.719 14.5054L16.7265 14.5031C16.9988 14.4229 17.2665 14.3269 17.5283 14.2174L17.598 14.1844L17.6355 14.1184C17.8868 13.6294 18.093 13.1194 18.252 12.5944C18.5333 12.5366 18.7733 12.3566 18.9068 12.1031C18.9855 12.5246 19.0268 12.9529 19.0305 13.3819C19.0291 13.4024 19.0284 13.4229 19.0283 13.4434Z" fill="#372D2C"/>
<path d="M7.23604 9.05137L7.40929 8.84137H7.46704H7.38079C7.29379 8.96887 7.18729 9.09112 7.09204 9.21637C7.14679 9.16087 7.18954 9.10912 7.23604 9.05137Z" fill="#372D2C"/>
<path d="M12.7141 5.35767C13.0771 5.45292 13.3163 5.62617 13.3163 5.82792C13.3163 6.03042 13.0733 6.20292 12.7141 6.29817C13.2091 6.25317 13.5803 6.05892 13.5803 5.82792C13.5803 5.59692 13.2091 5.40117 12.7141 5.35767ZM11.5208 7.21167C11.5708 7.21167 11.6188 7.19201 11.6545 7.15693C11.6901 7.12186 11.7105 7.07417 11.7113 7.02417C11.7113 6.99906 11.7064 6.9742 11.6967 6.95103C11.6871 6.92786 11.6729 6.90683 11.6551 6.88917C11.6373 6.87169 11.6162 6.85802 11.593 6.84899C11.5698 6.83996 11.545 6.83577 11.5201 6.83667C11.4709 6.83726 11.4239 6.85732 11.3895 6.89247C11.355 6.92761 11.3359 6.97496 11.3363 7.02417C11.3363 7.12767 11.4188 7.21167 11.5208 7.21167ZM6.53708 7.84317C6.49986 7.84352 6.46358 7.85484 6.43278 7.87573C6.40198 7.89661 6.37803 7.92613 6.36394 7.96056C6.34984 7.995 6.34623 8.03284 6.35354 8.06933C6.36086 8.10581 6.37879 8.13933 6.40508 8.16567C6.44033 8.20092 6.48758 8.21967 6.53708 8.21817C6.57429 8.21782 6.61057 8.20649 6.64137 8.1856C6.67217 8.16472 6.69612 8.13521 6.71021 8.10077C6.72431 8.06633 6.72793 8.02849 6.72061 7.99201C6.71329 7.95552 6.69536 7.92201 6.66908 7.89567C6.65187 7.87831 6.63126 7.86469 6.60855 7.85566C6.58584 7.84662 6.56151 7.84237 6.53708 7.84317ZM7.05683 13.8979C7.09404 13.8976 7.13032 13.8862 7.16112 13.8654C7.19192 13.8445 7.21587 13.815 7.22996 13.7805C7.24406 13.7461 7.24768 13.7082 7.24036 13.6718C7.23304 13.6353 7.21511 13.6018 7.18883 13.5754C7.17162 13.5581 7.15101 13.5444 7.1283 13.5354C7.10559 13.5264 7.08125 13.5221 7.05683 13.5229C7.00722 13.5233 6.95976 13.5432 6.92468 13.5783C6.8896 13.6133 6.86972 13.6608 6.86933 13.7104C6.87308 13.8154 6.95558 13.8979 7.05683 13.8979ZM11.6108 14.6157C11.648 14.6153 11.6843 14.604 11.7151 14.5831C11.7459 14.5622 11.7699 14.5327 11.784 14.4983C11.7981 14.4638 11.8017 14.426 11.7944 14.3895C11.787 14.353 11.7691 14.3195 11.7428 14.2932C11.7256 14.2758 11.705 14.2622 11.6823 14.2532C11.6596 14.2441 11.6353 14.2399 11.6108 14.2407C11.5608 14.2416 11.5131 14.2622 11.478 14.298C11.443 14.3338 11.4233 14.3818 11.4233 14.4319C11.4266 14.4802 11.4475 14.5256 11.4821 14.5595C11.5166 14.5934 11.5625 14.6134 11.6108 14.6157ZM12.6346 7.21542C12.6846 7.21542 12.7326 7.19576 12.7682 7.16068C12.8039 7.12561 12.8243 7.07792 12.8251 7.02792C12.8251 7.00281 12.8201 6.97795 12.8105 6.95478C12.8008 6.93161 12.7867 6.91058 12.7688 6.89292C12.7511 6.87544 12.73 6.86177 12.7067 6.85274C12.6835 6.84371 12.6587 6.83952 12.6338 6.84042C12.5846 6.84101 12.5377 6.86107 12.5032 6.89622C12.4688 6.93136 12.4497 6.97871 12.4501 7.02792C12.4501 7.13217 12.5326 7.21542 12.6346 7.21542ZM12.5431 14.2452C12.4936 14.2459 12.4463 14.2659 12.4113 14.3009C12.3764 14.3359 12.3563 14.3832 12.3556 14.4327C12.3631 14.5354 12.4433 14.6164 12.5431 14.6202C12.5803 14.6198 12.6166 14.6085 12.6474 14.5876C12.6782 14.5667 12.7021 14.5372 12.7162 14.5028C12.7303 14.4683 12.7339 14.4305 12.7266 14.394C12.7193 14.3575 12.7014 14.324 12.6751 14.2977C12.6579 14.2803 12.6373 14.2667 12.6145 14.2577C12.5918 14.2486 12.5675 14.2444 12.5431 14.2452ZM7.46033 15.5074C7.42765 15.5051 7.39496 15.512 7.36604 15.5274C7.33711 15.5427 7.31312 15.566 7.29683 15.5944C7.27951 15.6236 7.27 15.6567 7.26921 15.6906C7.26842 15.7245 7.27638 15.758 7.29233 15.7879C7.32533 15.8479 7.38683 15.8847 7.45283 15.8817H7.46033C7.5094 15.8807 7.55613 15.8605 7.59049 15.8254C7.62485 15.7904 7.64409 15.7433 7.64408 15.6942C7.6446 15.6464 7.6269 15.6003 7.59458 15.5652C7.57734 15.5467 7.55642 15.532 7.53318 15.522C7.50993 15.5121 7.48486 15.5071 7.45958 15.5074H7.46033ZM8.59208 15.1692C8.56765 15.1694 8.5435 15.1744 8.52101 15.1839C8.49852 15.1934 8.47812 15.2073 8.46099 15.2247C8.44386 15.2421 8.43032 15.2627 8.42116 15.2854C8.41199 15.308 8.40738 15.3322 8.40758 15.3567C8.40758 15.4602 8.49008 15.5442 8.59208 15.5442C8.64208 15.5442 8.69009 15.5245 8.72573 15.4894C8.76137 15.4544 8.78179 15.4067 8.78258 15.3567C8.7826 15.3316 8.77764 15.3067 8.76798 15.2835C8.75832 15.2604 8.74417 15.2393 8.72633 15.2217C8.70858 15.2042 8.68745 15.1905 8.66424 15.1815C8.64103 15.1725 8.61622 15.1683 8.59133 15.1692H8.59208ZM15.5641 15.1692C15.5395 15.1701 15.5153 15.1759 15.4929 15.1862C15.4705 15.1965 15.4503 15.2111 15.4336 15.2291C15.4168 15.2472 15.4038 15.2684 15.3952 15.2915C15.3867 15.3146 15.3828 15.3392 15.3837 15.3638C15.3846 15.3884 15.3904 15.4126 15.4007 15.435C15.411 15.4574 15.4256 15.4775 15.4437 15.4943C15.4617 15.511 15.4829 15.5241 15.506 15.5326C15.5291 15.5412 15.5537 15.5451 15.5783 15.5442C15.6281 15.5422 15.675 15.5205 15.7087 15.4839C15.7425 15.4474 15.7603 15.3989 15.7583 15.3492C15.7563 15.2994 15.7347 15.2525 15.6981 15.2188C15.6615 15.185 15.6131 15.1672 15.5633 15.1692H15.5641Z" fill="#372D2C"/>
</svg>

<svg width="24" height="24" viewBox="0 0 24 24" fill="none"><path fill="#372d2c" fill-rule="evenodd" d="M17.165 18.403q.544-.673.953-1.436a9.6 9.6 0 0 1-.967 1.449zm-11.9-2.932a7.3 7.3 0 0 1-.172-3.36l-.003-.008a7.3 7.3 0 0 0 .57 4.433 9.4 9.4 0 0 0 1.172 1.87l.02.017a9.4 9.4 0 0 1-1.187-1.887q-.24-.517-.4-1.065m13.472 0h-.002zm-11.663-.873.102-.05.09-.044z" clip-rule="evenodd"/><path fill="#372d2c" d="m7.475 14.565.076-.056h-.025l-.35.323q.125-.162.3-.267"/><path fill="#372d2c" d="M20.214 10.78a.27.27 0 0 0-.161-.115q-.39-.096-.78-.18l.07-.348.045-.22.021-.11.02-.12c.029-.178.009-.36-.057-.528a1.11 1.11 0 0 0-.85-.692 9 9 0 0 0-.258-1.119l-.013-.045-1.864-2.265-.07-.02c-.076-.02-1.756-.517-4.043-.518l.026-.451A.927.927 0 0 0 12 2.24a.927.927 0 0 0-.3 1.807l.026.454c-2.296.002-3.985.496-4.057.52l-.07.02-1.864 2.265-.012.045a9 9 0 0 0-.258 1.117h-.006l-.132.033a1.085 1.085 0 0 0-.76 1.185l.02.119.022.11.045.22.07.35q-.388.084-.775.178a.27.27 0 0 0-.161.115.256.256 0 0 0 .28.38q.378-.093.757-.175l.019.096a7.8 7.8 0 0 0 .379 5.663c1.131 2.413 3.734 5.016 6.779 5.016s5.647-2.603 6.781-5.02a7.8 7.8 0 0 0 .371-5.664l.018-.089q.38.084.76.176a.256.256 0 0 0 .28-.38zm-8.878-7.606a.737.737 0 0 1 .726-.735c.405 0 .405 1.465 0 1.469a.736.736 0 0 1-.726-.734m.486.907q.088.017.178.017h.028l.057 1.577a.254.254 0 0 1-.107.389.3.3 0 0 1-.098.019c-.38 0-.685-.116-.685-.255 0-.13.257-.236.593-.254l.092-.003h.025zM6.119 7.71l.218-.078.371-.124.488-.144c.177-.054.375-.103.58-.157l.656-.148c.228-.045.462-.095.705-.137.244-.04.488-.074.735-.115.248-.041.495-.062.738-.09.244-.03.483-.042.718-.062q.188-.016.371-.021h.013l.289 2.57.292-2.592h.314c.186 0 .359-.008.511 0l.396.016.347.012-.342-.033-.396-.037c-.153-.016-.323-.02-.512-.032a9 9 0 0 0-.607-.025h-.002c-.213 0-.443-.013-.677-.005-.233.009-.478.005-.726.021l-.75.05c-.253.02-.504.041-.751.074-.248.033-.492.07-.723.1-.222.027-.442.07-.65.106l-.368-.029.734-1.002 3.667-.8.022.398c-.495.04-.866.203-.866.4 0 .226.488.409 1.089.409s1.089-.183 1.089-.408c0-.198-.371-.362-.866-.4l.022-.397 3.651.797.735 1.002-1.021.083-.019-.002.011.003h-.015l1.956.969s.843 2.707-.32 5.008q-.199.391-.46.743s-1.805.833-4.58.98l-.184-.763c.226.008.452-.032.663-.115l.578-.19q1.76-.543 3.522-1.068l.116-.033.038-.107.037-.108.029-.103.053-.203q.142-.596.202-1.208l.033-.412.008-.207v-.21l.004-.214-.02-.215-.033-.214a2 2 0 0 0-.054-.206l-.033-.108-.037-.128-.027-.004-.01-.033-.038-.128-.148-.02a39 39 0 0 0-3.667-.252l-.127-.004-.054.107-.673 1.317-.363.006-.397.008-.72-1.29-.037-.07-.075.005q-.916.05-1.827.148-.91.096-1.811.251h.012-.007l-.026.083-.018.064.041-.147a2 2 0 0 1-.082.195q-.023.078-.038.156l-.008.02-.045.203-.033.202-.021.206c-.007.137-.012.277-.007.413l.015.412q.042.62.165 1.23l.045.202.059.206.016.05.058.02 2.335.767q1.03.336 2.058.69.087.017.178.024l.04.004h.013l.02.004.087.004h.013l-.19.776q-1.024.03-2.04-.073c-1.667-.224-2.764-.623-3.049-.736A8.84 8.84 0 0 1 6.12 7.71m8.85 1.147-2.206 4.16-.148.277-.107.036a1.3 1.3 0 0 1-.4.078 1.4 1.4 0 0 1-.619-.074l-.075-.028.095-.177 2.31-4.35.104-.197q.563.027 1.15.079zm.678.068.107-.204.318.03.301.032.038.004h.024l-.111.21-1.83 3.448-.15.283-.858.272.147-.28zm-10.763.952-.012-.11-.008-.108a.74.74 0 0 1 .539-.76 9.1 9.1 0 0 0 .315 3.654l-.034-.01a.87.87 0 0 1-.528-.528 1.4 1.4 0 0 1-.061-.318L4.909 10.1zm2.066 8.59-.012-.009.006.008a.3.3 0 0 1-.113-.062 9.4 9.4 0 0 1-1.171-1.867 7.3 7.3 0 0 1-.57-4.433l.003.008a.94.94 0 0 0 .637.483q.24.79.619 1.526l.037.066.07.033q.396.161.807.284h.007l-.02.006q-.09.03-.179.068-.074.032-.147.066l-.318.152-.103.05-.012.103a5.6 5.6 0 0 0 .229 2.33q.175.564.487 1.066l.004.007.012.033c.018.084-.142.117-.273.083m2.835 1.66a4.5 4.5 0 0 1-1.56-.97 3.7 3.7 0 0 1-.647-.846 4.3 4.3 0 0 1-.396-.99 5.4 5.4 0 0 1-.161-1.056 4.6 4.6 0 0 1 .029-.937l.194-.078q.298-.098.602-.172l.31-.062q.401-.068.808-.096h.032l.012.002a5.6 5.6 0 0 0-.345 1.972c0 1.343.443 2.485 1.146 3.246zm3.224-.858c-.31.176-.661.267-1.018.264a2.04 2.04 0 0 1-1.056-.289 2.5 2.5 0 0 1-.384-.545 1.903 1.903 0 0 0 2.836.05q-.155.285-.378.52m-1.018-.314a1.47 1.47 0 0 1-1.477-1.464v-.005a1.47 1.47 0 1 1 1.478 1.469zm1.866-1.754a1.892 1.892 0 0 0-3.741.063 5 5 0 0 1-.041-.512 2.05 2.05 0 0 1 1.918-1.3H12a2.05 2.05 0 0 1 1.895 1.262 5 5 0 0 1-.038.488m.324 2.948h.008l-.015.006c.712-.762 1.162-1.912 1.162-3.265a5.6 5.6 0 0 0-.346-1.973H15c1.062.153 1.615.698 1.615.698s.112 3.11-2.432 4.534zm4.847-6.705v.16l-.003.11a5 5 0 0 1-.014.246c0 .025-.005.051-.007.077q-.006.08-.015.16 0 .018-.004.036l-.018.154v.008l-.021.148v.005a7.3 7.3 0 0 1-.719 2.22l-.025.05-.08.151a9 9 0 0 1-.953 1.437.26.26 0 0 1-.108.061l.005-.007-.012.009c-.13.037-.295.005-.277-.083l.012-.033.008-.007q.308-.504.484-1.065a5.65 5.65 0 0 0 .226-2.327l-.012-.103-.103-.05q-.159-.081-.317-.152l-.327-.132-.029-.01.008-.003q.409-.12.801-.286l.07-.033.038-.066q.376-.735.616-1.524a.96.96 0 0 0 .655-.49 7.3 7.3 0 0 1 .121 1.34"/><path fill="#372d2c" d="m7.236 9.051.173-.21h.058-.086c-.087.128-.194.25-.289.375.055-.055.098-.107.144-.165m5.478-3.693c.363.095.602.268.602.47s-.243.375-.602.47c.495-.045.866-.24.866-.47 0-.231-.37-.427-.866-.47m-1.193 1.854a.19.19 0 0 0 .19-.188.19.19 0 0 0-.118-.175.2.2 0 0 0-.073-.012.186.186 0 0 0-.184.187c0 .104.083.188.185.188m-4.984.631a.189.189 0 0 0-.132.323.189.189 0 1 0 .203-.31.2.2 0 0 0-.07-.013m.52 6.055a.19.19 0 0 0 .132-.323.18.18 0 0 0-.132-.052.19.19 0 0 0-.188.187.19.19 0 0 0 .188.188m4.554.718a.19.19 0 0 0 .132-.323.18.18 0 0 0-.132-.052.19.19 0 0 0-.188.19.197.197 0 0 0 .188.185m1.024-7.4a.19.19 0 0 0 .175-.261.2.2 0 0 0-.103-.102.2.2 0 0 0-.073-.013.186.186 0 0 0-.184.188c0 .104.083.187.185.187m-.092 7.03a.19.19 0 0 0-.187.187.2.2 0 0 0 .187.187.19.19 0 0 0 .132-.322.18.18 0 0 0-.132-.053M7.46 15.506a.18.18 0 0 0-.163.087.2.2 0 0 0-.005.194c.033.06.095.097.16.094h.008a.187.187 0 0 0 .184-.188.19.19 0 0 0-.11-.172.2.2 0 0 0-.074-.015m1.132-.338a.187.187 0 0 0-.184.188.186.186 0 0 0 .318.132.2.2 0 0 0 .057-.132.19.19 0 0 0-.119-.175.2.2 0 0 0-.073-.013zm6.972 0a.187.187 0 0 0-.18.195.187.187 0 0 0 .194.18.187.187 0 1 0-.015-.375z"/></svg>
